X:269
T:Francis Sitwell
R:Strathspey
C:Nathaniel Gow
B:The Athole Collection
M:C
L:1/8
K:B_
B|F>BD>B G2 E>G|F>f e/d/c/B/ A<c cd/e/|d>BF>D G2 E>G|
F>B A/B/c d<BB:|
|:g|f>dg>e f2 d>g|g>d e/d/c/B/ A<c cd/e/|1 f>dg>d f>db>d|
e/d/c/B/ F>c ddB>F G2 E>G|F>B A/B/c d<B~B||
